packages/icons/src/components/ProductIcon/assets/general-purpose-instances.svg

<svg width="64" height="64" viewBox="0 0 64 64" fill="none" xmlns="http://www.w3.org/2000/svg">
<g clip-path="url(#clip0_791_2094)">
<path d="M0 16C0 7.16344 7.16344 0 16 0H48C56.8366 0 64 7.16344 64 16V48C64 56.8366 56.8366 64 48 64H16C7.16344 64 0 56.8366 0 48V16Z" fill="#521094" class="fillWeak"/>
<path fill-rule="evenodd" clip-rule="evenodd" d="M48 2H16C8.26801 2 2 8.26801 2 16V48C2 55.732 8.26801 62 16 62H48C55.732 62 62 55.732 62 48V16C62 8.26801 55.732 2 48 2ZM16 0C7.16344 0 0 7.16344 0 16V48C0 56.8366 7.16344 64 16 64H48C56.8366 64 64 56.8366 64 48V16C64 7.16344 56.8366 0 48 0H16Z" fill="#521094" class="fillWeak"/>
<path fill-rule="evenodd" clip-rule="evenodd" d="M25.4933 12.8834C25.4355 12.386 25.0128 12 24.5 12C23.9477 12 23.5 12.4477 23.5 13V18H23C20.2386 18 18 20.2386 18 23V23.5H13L12.8834 23.5067C12.386 23.5645 12 23.9872 12 24.5C12 25.0523 12.4477 25.5 13 25.5H18V28.5H13L12.8834 28.5067C12.386 28.5645 12 28.9872 12 29.5C12 30.0523 12.4477 30.5 13 30.5H18V33.5H13L12.8834 33.5067C12.386 33.5645 12 33.9872 12 34.5C12 35.0523 12.4477 35.5 13 35.5H18V38.5H13L12.8834 38.5067C12.386 38.5645 12 38.9872 12 39.5C12 40.0523 12.4477 40.5 13 40.5H18V41C18 43.7614 20.2386 46 23 46H23.5V50.8283L23.5067 50.9449C23.5645 51.4422 23.9872 51.8283 24.5 51.8283C25.0523 51.8283 25.5 51.3806 25.5 50.8283V46H28.5V50.8283L28.5067 50.9449C28.5645 51.4422 28.9872 51.8283 29.5 51.8283C30.0523 51.8283 30.5 51.3806 30.5 50.8283V46H33.5V50.8283L33.5067 50.9449C33.5645 51.4422 33.9872 51.8283 34.5 51.8283C35.0523 51.8283 35.5 51.3806 35.5 50.8283V46H38.5V50.8283L38.5067 50.9449C38.5645 51.4422 38.9872 51.8283 39.5 51.8283C40.0523 51.8283 40.5 51.3806 40.5 50.8283V46H41C43.7614 46 46 43.7614 46 41V40.5H50.8283L50.9449 40.4933C51.4422 40.4355 51.8283 40.0128 51.8283 39.5C51.8283 38.9477 51.3806 38.5 50.8283 38.5H46V35.5H50.8283L50.9449 35.4933C51.4422 35.4355 51.8283 35.0128 51.8283 34.5C51.8283 33.9477 51.3806 33.5 50.8283 33.5H46V30.5H50.8283L50.9449 30.4933C51.4422 30.4355 51.8283 30.0128 51.8283 29.5C51.8283 28.9477 51.3806 28.5 50.8283 28.5H46V25.5H50.8283L50.9449 25.4933C51.4422 25.4355 51.8283 25.0128 51.8283 24.5C51.8283 23.9477 51.3806 23.5 50.8283 23.5H46V23C46 20.2386 43.7614 18 41 18H40.5V13L40.4933 12.8834C40.4355 12.386 40.0128 12 39.5 12C38.9477 12 38.5 12.4477 38.5 13V18H35.5V13L35.4933 12.8834C35.4355 12.386 35.0128 12 34.5 12C33.9477 12 33.5 12.4477 33.5 13V18H30.5V13L30.4933 12.8834C30.4355 12.386 30.0128 12 29.5 12C28.9477 12 28.5 12.4477 28.5 13V18H25.5V13L25.4933 12.8834ZM44 24.5V23C44 21.4023 42.7511 20.0963 41.1763 20.0051L41 20H23C21.4023 20 20.0963 21.2489 20.0051 22.8237L20 23V41C20 42.5977 21.2489 43.9037 22.8237 43.9949L23 44H24.5H29.5H34.5H39.5H41C42.5977 44 43.9037 42.7511 43.9949 41.1763L44 41V39.5V34.5V29.5V24.5Z" fill="white" class="fill"/>
<path d="M30.5008 30.4908C30.3408 30.1974 30.1208 29.9741 29.8408 29.8208C29.5608 29.6674 29.2341 29.5908 28.8608 29.5908C28.4474 29.5908 28.0808 29.6841 27.7608 29.8708C27.4408 30.0574 27.1908 30.3241 27.0108 30.6708C26.8308 31.0174 26.7408 31.4174 26.7408 31.8708C26.7408 32.3374 26.8308 32.7441 27.0108 33.0908C27.1974 33.4374 27.4541 33.7041 27.7808 33.8908C28.1074 34.0774 28.4874 34.1708 28.9208 34.1708C29.4541 34.1708 29.8908 34.0308 30.2308 33.7508C30.5708 33.4641 30.7941 33.0674 30.9008 32.5608H28.5008V31.4908H32.2808V32.7108C32.1874 33.1974 31.9874 33.6474 31.6808 34.0608C31.3741 34.4741 30.9774 34.8074 30.4908 35.0608C30.0108 35.3074 29.4708 35.4308 28.8708 35.4308C28.1974 35.4308 27.5874 35.2808 27.0408 34.9808C26.5008 34.6741 26.0741 34.2508 25.7608 33.7108C25.4541 33.1708 25.3008 32.5574 25.3008 31.8708C25.3008 31.1841 25.4541 30.5708 25.7608 30.0308C26.0741 29.4841 26.5008 29.0608 27.0408 28.7608C27.5874 28.4541 28.1941 28.3008 28.8608 28.3008C29.6474 28.3008 30.3308 28.4941 30.9108 28.8808C31.4908 29.2608 31.8908 29.7974 32.1108 30.4908H30.5008Z" fill="#BF95F9" class="fillStrong"/>
<path d="M38.4066 30.5508C38.4066 30.9241 38.3166 31.2741 38.1366 31.6008C37.9632 31.9274 37.6866 32.1908 37.3066 32.3908C36.9332 32.5908 36.4599 32.6908 35.8866 32.6908H34.7166V35.3708H33.3166V28.3908H35.8866C36.4266 28.3908 36.8866 28.4841 37.2666 28.6708C37.6466 28.8574 37.9299 29.1141 38.1166 29.4408C38.3099 29.7674 38.4066 30.1374 38.4066 30.5508ZM35.8266 31.5608C36.2132 31.5608 36.4999 31.4741 36.6866 31.3008C36.8732 31.1208 36.9666 30.8708 36.9666 30.5508C36.9666 29.8708 36.5866 29.5308 35.8266 29.5308H34.7166V31.5608H35.8266Z" fill="#BF95F9" class="fillStrong"/>
</g>
</svg>

<svg xmlns="http://www.w3.org/2000/svg" width="64" height="64" fill="none" viewBox="0 0 64 64">
    <g clip-path="url(#clip0_791_2094)">
        <path fill="#521094" d="M0 16C0 7.163 7.163 0 16 0h32c8.837 0 16 7.163 16 16v32c0 8.837-7.163 16-16 16H16C7.163 64 0 56.837 0 48z" class="fillWeak"/>
        <path fill="#521094" fill-rule="evenodd" d="M48 2H16C8.268 2 2 8.268 2 16v32c0 7.732 6.268 14 14 14h32c7.732 0 14-6.268 14-14V16c0-7.732-6.268-14-14-14M16 0C7.163 0 0 7.163 0 16v32c0 8.837 7.163 16 16 16h32c8.837 0 16-7.163 16-16V16c0-8.837-7.163-16-16-16z" class="fillWeak" clip-rule="evenodd"/>
        <path fill="#fff" fill-rule="evenodd" d="M25.493 12.883A1 1 0 0 0 23.5 13v5H23a5 5 0 0 0-5 5v.5h-5l-.117.007A1 1 0 0 0 13 25.5h5v3h-5l-.117.007A1 1 0 0 0 13 30.5h5v3h-5l-.117.007A1 1 0 0 0 13 35.5h5v3h-5l-.117.007A1 1 0 0 0 13 40.5h5v.5a5 5 0 0 0 5 5h.5v4.828l.007.117a1 1 0 0 0 1.993-.117V46h3v4.828l.007.117a1 1 0 0 0 1.993-.117V46h3v4.828l.007.117a1 1 0 0 0 1.993-.117V46h3v4.828l.007.117a1 1 0 0 0 1.993-.117V46h.5a5 5 0 0 0 5-5v-.5h4.828l.117-.007a1 1 0 0 0-.117-1.993H46v-3h4.828l.117-.007a1 1 0 0 0-.117-1.993H46v-3h4.828l.117-.007a1 1 0 0 0-.117-1.993H46v-3h4.828l.117-.007a1 1 0 0 0-.117-1.993H46V23a5 5 0 0 0-5-5h-.5v-5l-.007-.117A1 1 0 0 0 38.5 13v5h-3v-5l-.007-.117A1 1 0 0 0 33.5 13v5h-3v-5l-.007-.117A1 1 0 0 0 28.5 13v5h-3v-5zM44 24.5V23a3 3 0 0 0-2.824-2.995L41 20H23a3 3 0 0 0-2.995 2.824L20 23v18a3 3 0 0 0 2.824 2.995L23 44h18a3 3 0 0 0 2.995-2.824L44 41z" class="fill" clip-rule="evenodd"/>
        <path fill="#bf95f9" d="M30.5 30.49a1.64 1.64 0 0 0-.66-.67 2 2 0 0 0-.98-.23q-.62 0-1.1.28t-.75.8-.27 1.2q0 .7.27 1.22.28.52.77.8t1.14.28q.8 0 1.31-.42.51-.43.67-1.19h-2.4v-1.07h3.78v1.22a3.3 3.3 0 0 1-.6 1.35 3.4 3.4 0 0 1-1.19 1q-.72.37-1.62.37a3.74 3.74 0 0 1-1.83-.45 3.4 3.4 0 0 1-1.28-1.27q-.46-.81-.46-1.84t.46-1.84a3.3 3.3 0 0 1 1.28-1.27 3.66 3.66 0 0 1 1.82-.46q1.18 0 2.05.58.87.57 1.2 1.61zm7.907.06q0 .561-.27 1.05-.26.49-.83.79-.56.3-1.42.3h-1.17v2.68h-1.4v-6.98h2.57q.81 0 1.38.28t.85.77q.29.49.29 1.11m-2.58 1.01q.58 0 .86-.26.28-.27.28-.75 0-1.02-1.14-1.02h-1.11v2.03z" class="fillStrong"/>
    </g>
</svg>
